X:1
T: The General Gathering 1745
C:
R:Jig
Q:180
K:D
M:6/8
L:1/16
f2|d4F2 F2G2F2|A2B2c2 d2e2f2|e2d2c2 d2c2B2|A4E2 E4f2|d4F2 F2G2F2|A2B2c2 d2e2f2|e2d2c2 d2c2B2|A4F2 F4f2|
d4F2 F2G2F2|A2B2c2 d2e2f2|e2d2c2 d2c2B2|A4E2 E4f2|d4F2 F2G2F2|A2B2c2 d2e2f2|e2d2c2 d2c2B2|A4F2 F4d2|
A2G2F2 A2G2F2|A2G2F2 A2B2c2|d2c2B2 A2G2F2|B4E2 E4B2|A2G2F2 A2G2F2|A2B2c2 d2e2f2|e2d2c2 d2c2B2|A4F2 F4d2|
A2G2F2 A2G2F2|A2G2F2 A2B2c2|d2c2B2 A2G2F2|B4E2 E4B2|A2G2F2 A2B2c2|d2e2f2 d2e2f2|a2g2f2 e2d2c2|d6 d4||
